ERK
CUT[WENN MICH DAS GLUECK BETRIFFT]
REG[Europa, Mitteleuropa, Deutschland, Friesack, Viegnitz]
TRD[]
FKT[]
SIG[E0973]
KEY[E0973   04  G 3/4]
MEL[-511  1-72
    -522  213
    133  324
    4-7-7  1_1
    -511  1-72
    -522  213
    133  324
    4-7-7  1_1
    355  546
    244  435
    133  324
    4-7-7  2_1
    355  546
    244  435
    133  324
    4-7-7  2_1 //]
BEM[]
MEL_SEM[5 0 0 -1 3 -7 7 0 0 -2 4 -4 4 0 0 -2 3 0 -6 0 1 0 -5 5 0 0 -1 3 -7 7 0 0 -2 4 -4 4 0 0 -2 3 0 -6 0 1 0 4 3 0 0 -2 4 -7 3 0 0 -1 3 -7 4 0 0 -2 3 0 -6 0 3 -2 4 3 0 0 -2 4 -7 3 0 0 -1 3 -7 4 0 0 -2 3 0 -6 0 3 -2]
MEL_RAW[-511  1-72
    -522  213
    133  324
    4-7-7  11
    -511  1-72
    -522  213
    133  324
    4-7-7  11
    355  546
    244  435
    133  324
    4-7-7  21
    355  546
    244  435
    133  324
    4-7-7  21]
NO_REP[-51-72
    -5213
    1324
    4-71
    -51-72
    -5213
    1324
    4-71
    3546
    2435
    1324
    4-721
    3546
    2435
    1324
    4-721]
RTM[xxx  xxx
    xxx  xxx
    xxx  xxx
    xxx  x_x
    xxx  xxx
    xxx  xxx
    xxx  xxx
    xxx  x_x
    xxx  xxx
    xxx  xxx
    xxx  xxx
    xxx  x_x
    xxx  xxx
    xxx  xxx
    xxx  xxx
    xxx  x_x]
SCL_DEG[-5-7123456]
SCL_SEM[4 1 2 2 1 2 2]

